cutejava-front/src/assets/icons/svg/news.svg

<svg class="icon" viewBox="0 0 1024 1024" xmlns="http://www.w3.org/2000/svg" width="200" height="200"><defs><style/></defs><path d="M945.28 892.992c3.264 3.392-39.36-40.256-39.36-40.256s65.6-23.488 78.72-100.608c3.264 0 0-604.032 0-604.032V128H1024v684.48s-19.712 53.696-78.72 80.512zm-827.136 0C26.24 852.736 0 772.16 0 772.16V369.6h236.288V128s590.72 3.328 590.72 0c26.304 3.328 39.424 40.256 39.424 40.256v603.968c16.384 90.624 78.72 120.832 78.72 120.832s-823.744 6.72-827.008-.064zm630.144-644.224H256V349.44h492.288V248.768zM512 731.968h236.288v-40.256H512v40.256zm0-80.576h236.288v-40.256H512v40.256zm0-80.512h236.288v-40.256H512v40.256zm0-80.512h236.288v-40.256H512v40.256zm-137.856-40.256H98.496v281.792h275.712V450.112zM905.856 128h39.36v664.384h-39.36V128zm-708.928 0v201.28H0L196.928 128z"/></svg>

<?xml version="1.0" standalone="no"?><!DOCTYPE svg PUBLIC "-//W3C//DTD SVG 1.1//EN" "http://www.w3.org/Graphics/SVG/1.1/DTD/svg11.dtd"><svg t="1576036704011" class="icon" viewBox="0 0 1024 1024" version="1.1" xmlns="http://www.w3.org/2000/svg" p-id="12805" xmlns:xlink="http://www.w3.org/1999/xlink" width="200" height="200"><defs><style type="text/css"></style></defs><path d="M945.28 892.992c3.264 3.392-39.36-40.256-39.36-40.256s65.6-23.488 78.72-100.608c3.264 0 0-604.032 0-604.032L984.64 128 1024 128l0 684.48C1024 812.48 1004.288 866.176 945.28 892.992zM118.144 892.992C26.24 852.736 0 772.16 0 772.16L0 369.6l236.288 0L236.288 128c0 0 590.72 3.328 590.72 0 26.304 3.328 39.424 40.256 39.424 40.256s0 607.296 0 603.968c16.384 90.624 78.72 120.832 78.72 120.832S121.408 899.776 118.144 892.992zM748.288 248.768 256 248.768 256 349.44l492.288 0L748.288 248.768zM512 731.968l236.288 0 0-40.256L512 691.712 512 731.968zM512 651.392l236.288 0L748.288 611.136 512 611.136 512 651.392zM512 570.88l236.288 0L748.288 530.624 512 530.624 512 570.88zM512 490.368l236.288 0L748.288 450.112 512 450.112 512 490.368zM374.144 450.112 98.496 450.112l0 281.792 275.712 0L374.208 450.112zM905.856 128l39.36 0 0 664.384-39.36 0L905.856 128zM196.928 128l0 201.28L0 329.28 196.928 128z" p-id="12806"></path></svg>
